X:1
T:Sortes mes pleurs
T:Sortes mes pleurs
T:Pierre de Manchicourt
C:Pierre de Manchicourt
%%score [ 1 [ 2 3 ] 4 ]
L:1/8
Q:1/4=75
M:2/2
K:C
V:1 treble nm="Superius" snm="S"
V:2 treble-8 nm="Tenor 1" snm="T 1"
V:3 treble-8 nm="Tenor 2" snm="T 2"
V:4 bass nm="Bassus" snm="B"
V:1
 z8 | E6 D2 | F4 E2 E2 | G2 F3 E A2 | GFGA B2 c2- | c2 BA GA B2- | B2 A3 B c2 | B2 A2 G2 B2- | %8
w: |Sor- tez|mes pleurs, has-|tez vous de des-|cen- * * * * *||||
 BA A4 G2 | A2 c2 c2 B2 | A2 A2 G2 G2 | (3F2 E2 F2 (3G2 D2 E2 | (3F2 C2 D2 E4 | z2 c2 c2 B2 | %14
w: |dre des- sus le|feu qui me con-|som- * * m'et _ _|ard, _ _ _|des- sus le|
 A2 A2 G2 G2 | F2 F2 EF GA | Bc d3 c c2- | c2 B2 c4- | c8 | z2 G2 A4- | A2 A2 G4 | z2 G2 c4- | %22
w: feu qui me con-|som- m'et ard, _ _ _|_ _ _ _ _|||où mon|_ se- cours|ar- ri-|
 c2 B2 A2 G2 | A3 G F2 G2- |"^#" G2 F2 G4 | z4 E4 | D2 F2 E2 B2 | A2 c2 B2 G2 | B2 A2 A2 G2 | %29
w: * ve- ra trop|tard, _ _ _|_ _ _|que|ce- pen- dant, que|ce- pen- dant je|se- ray mis en|
 F2 D2 E4- | E8 | z2 B2 A2 c2 | B2 A2 A2 G2 | F2 D2 E2 F2- | FE E4 D2 | E8- | E8- | E8- | E8 |] %39
w: cen- * dre,|_|que ce- pen-|dant je se- ray|mis en cen- *||dre.|_|||
V:2
 B6 A2 | c4 B2 B2 | d2 d2 c2 BA | Bc d2 c2 d2 | e2 z e d2 f2 | e4 z2 d2 | f2 f2 e2 g2- | g2 f2 e4 | %8
w: Sor- tez|mes pleurs, has-|tez vous de des- *|* * cen- * *|dre, has- tez _|vous, has-|tez vous de des-|* cen- dre|
 z2 e2 e2 e2 | cd ec d2 d2 | c2 A2 e4 | c2 z c c2 B2 | A2 A2 G2 G2 | c3 d e2 d2 | f4 e4 | %15
w: des- sus le|feu _ _ _ _ qui|me con- som-|me, des- sus le|feu qui me con-|som- * * m'et|ard, _|
 c2 d2 e4 | d3 e f4 | g4 e4 | z2 e2 f2 f2 | e4 z2 e2 | f2 f2 e4- | e8- | e4 c4 | f2 e2 d2 c2 | %24
w: _ _ _|||où mon se-|cours ar-|ri- ve- ra|_|* trop|tard, _ _ _|
 d4 z4 | B2 A2 c2 B2 | z4 e3 d | f2 e3 d Bc | d2 A2 B2 c2 | dc BA B2 z B | A2 c2 B2 A2 | GE e4 c2 | %32
w: _|que ce- pen- dant,|que ce-|pen- dant je se- *|ray mis _ en|cen- * * * dre, que|ce- pen- dant je|se- * ray mis|
 dc BA B2 c2 | d2 A2 Bc dB | c3 B A4 | z2 B2 A2 c2 | B2 A2 G3 F | E2 A2 c4 | B8 |] %39
w: en _ _ _ cen- *||* * dre,|que ce- pen-|dant je se- ray|mis en cen-|dre.|
V:3
 z8 | z8 | z8 | z8 | B6 A2 | c4 B2 B2 | d2 d2 c2 e2 | d2 c2 B2 G2 | A4 E4 | z8 | z2 c2 c2 B2 | %11
w: ||||Sor- tez|mes pleurs, has-|tez vous de des-|cen- * * *|* dre||des- sus le|
 A2 A2 G2 G2 | F2 F2 EF GE | F4 E2 B2 | c2 d2 B2 c2- | cA B2 c2 G2- | GA B2 c4 | d4 c4 | %18
w: feu qui me con-|som- m'et ard, _ _ _|_ qui me|con- som- * *|* * * m'et ard,|_ _ _ _||
 z2 G2 A2 A2 | G2 G2 c3 B | c2 d2 B2 G2 | c6 B2 | A2 G2 (3A2 B2 c2 | F2 A4 G2 | A4 G4 | z4 z2 B2- | %26
w: où mon se-|cours ar- ri- *|* ve- ra trop|tard, _|_ _ _ _ _|||que|
 B2 A2 c2 B2 | c3 A B2 z E | D2 F2 E2 G2 | B2 A2 A2 G2 | c2 BA G2 c2 | B4 z2 E2 | D2 F2 E2 G2 | %33
w: _ ce- pen- *|* * dant, que|ce- pen- dant je|se- ray mis en|cen- * * * *|dre, que|ce- pen- dant je|
 A2 A2 G2 A2- | A2 G2 F4 | E4 z2 A2 | G2 c2 c2 B2 | c3 B A4 | G8 |] %39
w: se- ray mis en|_ _ cen-|dre,- je|se- ray mis en|cen- * *|dre.|
V:4
 z8 | z8 | z4 E,4- | E,2 D,2 F,4 | E,2 E,2 G,2 F,2 | A,3 G, E,F, G,2 | D,E, F,G, A,2 E,2 | %7
w: ||Sor-|* tez mes|pleurs, has- tez vous|de des- cen- * *||
 G,2 A,2 E,4 | z2 C2 C2 B,2 | A,3 G, F,2 G,2 | A,2 F,2 E,4 | A,,4 z4 | z2 C2 C2 B,2 | %13
w: * * dre|des- sus le|feu _ _ qui|me con- som-|me,|des- sus le|
 A,2 A,2 G,2 G,2 | F,2 D,2 E,2 C,2 | F,2 D,2 C,D, E,F, | G,4 F,2 A,2 | G,4 C,4- | C,2 C,2 F,2 F,2 | %19
w: feu qui me con-|som- m'et ard, _|_ _ _ _ _ _||* où|_ mon se- cours,-|
 C,2 E,2 A,3 G, | F,2 E,D, E,4 | C,8 | C,4 F,2 E,2 | D,2 C,2 D,2 E,2 | D,4 z2 E,2 | %25
w: où mon se- *||cours|ar- ri- *|* ve- ra trop|tard, que|
 D,2 F,2 E,2 E,2 | G,2 D,2 A,2 G,2 | A,4 E,4 | z4 z2 E,2 | D,2 F,2 E,2 E,2 | A,,2 A,,2 E,2 A,,2 | %31
w: ce- pen- dant je|se- ray mis en|cen- dre,|que|ce- pen- dant je|se- ray mis en|
 E,4 A,,4 | z4 z2 E,2 | D,2 F,2 E,2 D,2 | C,2 C,2 D,3 C, | A,,2 G,,2 A,,4 | E,2 A,,2 C,2 G,,2 | %37
w: cen- dre,|que|ce- pen- dant je|se- ray mis en|cen- dre, je|se- ray mis en|
 A,,8 | E,8 |] %39
w: cen-|dre.|

